X:73
T:Polska efter C A Lindblom
R:sl\"angpolska
H:efter Karl August Lindblom, Rejmyre, Skedevi, \"Osterg\"otland
A:\"Osterg\"otland
B:C A Lindblom 64
Z:id:hn-sp-73
M:3/4
L:1/16
K:D
A4 AGFG AGFG | A2A2 d2f2 a4 | gagf efed cdcB | ABcd efed cdcB |
A4 AGFG AGFG | A2A2 d2f2 a4 | gagf efed cdcB | ABcd e4 d4 :|
|: cdcB ABcd e2ef | g2ga f2fg e2d2 | cdcB ABcd e2ef | g2ga f2fg e4 |
A4 AGFG AGFG | A2A2 d2f2 a4 | gagf efed cdcB | ABcd e4 d4 :|
<end>
<start>
